svgs/furaffinity.svg

<svg width="192" height="192" viewBox="0 0 192 192" fill="none" xmlns="http://www.w3.org/2000/svg">
<path d="M153 133C153 142.332 147.508 151.435 137.293 158.462C127.105 165.472 112.701 170 96.5 170C80.2992 170 65.8949 165.472 55.7067 158.462C45.4922 151.435 40 142.332 40 133C40 123.668 45.4922 114.565 55.7067 107.538C65.8949 100.528 80.2992 96 96.5 96C112.701 96 127.105 100.528 137.293 107.538C147.508 114.565 153 123.668 153 133Z" stroke="black" stroke-width="12"/>
<path d="M96 22C105.72 22 116 32.8084 116 49.5C116 66.1916 105.72 77 96 77C86.2804 77 76 66.1916 76 49.5C76 32.8084 86.2804 22 96 22Z" stroke="black" stroke-width="12"/>
<path d="M156.902 37.5249C166.29 40.0405 173.423 53.1414 169.103 69.2642C164.783 85.387 152.055 93.1664 142.667 90.6508C133.279 88.1352 126.146 75.0342 130.466 58.9114C134.786 42.7886 147.514 35.0092 156.902 37.5249Z" stroke="black" stroke-width="12"/>
<path d="M35.667 37.5248C45.0554 35.0092 57.7829 42.7886 62.103 58.9114C66.4231 75.0342 59.2905 88.1351 49.902 90.6507C40.5136 93.1664 27.7861 85.387 23.466 69.2642C19.1459 53.1414 26.2786 40.0405 35.667 37.5248Z" stroke="black" stroke-width="12"/>
</svg>

<svg width="192" height="192" viewBox="0 0 192 192" fill="none" xmlns="http://www.w3.org/2000/svg"><path d="M153 133c0 9.332-5.492 18.435-15.707 25.462C127.105 165.472 112.701 170 96.5 170c-16.2 0-30.605-4.528-40.793-11.538C45.492 151.435 40 142.332 40 133s5.492-18.435 15.707-25.462C65.895 100.528 80.299 96 96.5 96s30.605 4.528 40.793 11.538C147.508 114.565 153 123.668 153 133ZM96 22c9.72 0 20 10.808 20 27.5S105.72 77 96 77 76 66.192 76 49.5 86.28 22 96 22ZM156.902 37.525c9.388 2.516 16.521 15.616 12.201 31.74-4.32 16.122-17.048 23.901-26.436 21.386-9.388-2.516-16.521-15.617-12.201-31.74 4.32-16.122 17.048-23.902 26.436-21.386ZM35.667 37.525c9.388-2.516 22.116 5.264 26.436 21.386 4.32 16.123-2.813 29.224-12.201 31.74-9.388 2.515-22.116-5.264-26.436-21.387s2.813-29.223 12.201-31.74Z" stroke="#000" stroke-width="12"/></svg>
